svgs/sharp-regular/airplay.svg

<svg xmlns="http://www.w3.org/2000/svg" viewBox="0 0 576 512"><!--! Font Awesome Pro 6.6.0 by @fontawesome - https://fontawesome.com License - https://fontawesome.com/license (Commercial License) Copyright 2024 Fonticons, Inc. --><path d="M48 80l480 0 0 288-103.3 0 44.7 40.2 8.7 7.8 49.9 0 48 0 0-48 0-288 0-48-48 0L48 32 0 32 0 80 0 368l0 48 48 0 49.9 0 8.7-7.8L151.3 368 48 368 48 80zm80 400l48 0 224 0 48 0 0-48L288 288 128 432l0 48zM288 352.6L376.2 432l-176.5 0L288 352.6z"/></svg>

<svg xmlns="http://www.w3.org/2000/svg" viewBox="0 0 576 512"><!--! Font Awesome Pro 6.4.0 by @fontawesome - https://fontawesome.com License - https://fontawesome.com/license (Commercial License) Copyright 2023 Fonticons, Inc. --><path d="M48 80H528V368H424.7l44.7 40.2 8.7 7.8H528h48V368 80 32H528 48 0V80 368v48H48 97.9l8.7-7.8L151.3 368H48V80zm80 400h48H400h48V432L288 288 128 432v48zM288 352.6L376.2 432H199.8L288 352.6z"/></svg>
